X:50
T:O'Rourke's
S:Setting from Alan Ng for teaching purposes
Z: id:ng-reels-50 transcribed by Alan Ng alan@alan-ng.nospam (net) 30 Sept 2004
M:C|
L:1/8
K:AMix
ed|:(3cBAeA fAeA|(3cBAec dfed|(3cBAeA fAe2|1fagf e2ed:|2fagf e2ef||\
(3gfefd e3f|(3gfefd eaa2|(3gfefd edcd|eage d2ef|\
(3gfefd e3f|(3gfefd eaa2|abag efge|fagf e2ed||**
